images_breeze_svg/cmd/lc_versiondialog.svg

<svg viewBox="0 0 24 24" xmlns="http://www.w3.org/2000/svg"><path d="m4 3v1 12h1 2v1 1h3v4h1 9v-1-12h-1-2v-2-1h-3v-3h-1-8zm1 1h8v2h-6v1 8h-2zm3 3h8v2h-5-1v1 7h-2zm3 3h8v11h-8v-3-1z" fill="#4d4d4d"/></svg>

<?xml version="1.0" encoding="UTF-8" standalone="no"?>
<svg
   xmlns:dc="http://purl.org/dc/elements/1.1/"
   xmlns:cc="http://creativecommons.org/ns#"
   xmlns:rdf="http://www.w3.org/1999/02/22-rdf-syntax-ns#"
   xmlns:svg="http://www.w3.org/2000/svg"
   xmlns="http://www.w3.org/2000/svg"
   xmlns:sodipodi="http://sodipodi.sourceforge.net/DTD/sodipodi-0.dtd"
   xmlns:inkscape="http://www.inkscape.org/namespaces/inkscape"
   viewBox="0 0 24 24"
   version="1.1"
   id="svg6"
   sodipodi:docname="lc_versiondialog.svg"
   inkscape:version="0.92.4 (unknown)"
   inkscape:export-filename="/home/rizmut/Dokumen/Rizmut/Github/libreoffice-style-breeze/images_breeze/cmd/lc_versiondialog.png"
   inkscape:export-xdpi="96"
   inkscape:export-ydpi="96">
  <metadata
     id="metadata12">
    <rdf:RDF>
      <cc:Work
         rdf:about="">
        <dc:format>image/svg+xml</dc:format>
        <dc:type
           rdf:resource="http://purl.org/dc/dcmitype/StillImage" />
        <dc:title></dc:title>
      </cc:Work>
    </rdf:RDF>
  </metadata>
  <defs
     id="defs10" />
  <sodipodi:namedview
     pagecolor="#ffffff"
     bordercolor="#666666"
     borderopacity="1"
     objecttolerance="10"
     gridtolerance="10"
     guidetolerance="10"
     inkscape:pageopacity="0"
     inkscape:pageshadow="2"
     inkscape:window-width="1360"
     inkscape:window-height="714"
     id="namedview8"
     showgrid="true"
     inkscape:zoom="19.666667"
     inkscape:cx="15.6058"
     inkscape:cy="11.808997"
     inkscape:window-x="0"
     inkscape:window-y="28"
     inkscape:window-maximized="1"
     inkscape:current-layer="svg6">
    <inkscape:grid
       type="xygrid"
       id="grid822" />
  </sodipodi:namedview>
  <path
     style="fill:#4d4d4d"
     d="M 4 3 L 4 4 L 4 16 L 5 16 L 7 16 L 7 17 L 7 18 L 10 18 L 10 22 L 11 22 L 20 22 L 20 21 L 20 9 L 19 9 L 17 9 L 17 7 L 17 6 L 14 6 L 14 3 L 13 3 L 5 3 L 4 3 z M 5 4 L 13 4 L 13 6 L 7 6 L 7 7 L 7 15 L 5 15 L 5 4 z M 8 7 L 16 7 L 16 9 L 11 9 L 10 9 L 10 10 L 10 17 L 8 17 L 8 7 z M 11 10 L 19 10 L 19 21 L 11 21 L 11 18 L 11 17 L 11 10 z "
     id="path2" />
</svg>
